X:1
%
T:Lamberton Races [2]
T:Caledonian Hunt’s Delight
M:6/8
L:1/8
Q:Slow
B:Joshua Campbell – A Collection of New Reels & Highland Strathspeys (Glasgow, 1789, pp. 28-29)
Z:AK/Fiddler’s Companion
K:D
D3 [A,3E3]{DE}|F>GF EDE|{DE}F>ED DB,A,|A,B,D E2 F/E/|
D3 TE3{DE}|F>AF EDE|{DE}F>ED DB,A,|(A,B,)D D3:|
|:(F/G/){F}A2B (AF)D|{F}A>Bc/d/ {B}(AF)D|(AF)D (AF)D|B>AG/F/ [A,2E2] T(F/>E/)|
D3E2{DE}|F>AF/A/ [A,E]DE|{DE}F>ED DB,A,|A,B,D D2:|
|:T(F/E/)|(D/A,/)(D/A,)(F/D/) (E/A,)(E/A,)(G/E/)|F>AG/F/ [A,E]DE|{DE}F>ED DB,A,|(A,/B,/)(D/E/)(F/D/) (E/A/)(G/F)(E/F/)|
(D/A,/)(D/E/) (G/4F/4E/4D/4) (E/A,/)(E/F/) (A/4G/4F/4E/4)|(F/A/)(G/A/)(F/A/) (E/A,/)(E/G/)(F/E/)|
{F}A>GF/E/ (D/F/)(E/D/)(C/B,/)|(A,/D/)(B,/D/)(C/E/) {C}D2:|
|:(F/G/)|[F2A2] [GB] (B/A/)(G/F/)E/D/|(A/F/)(A/F/)(d/A/) (B/A/)(G/F/)(E/D/)|
{F}A>Bc/d/ (B/A/)(d/A/)(F/A/)|B>AG/F/ ([A,/E/]D/E/)G/(F/E/)|D>A,D/A, E>A,E/A,/|
F>AG/F/ {F}EDE|(F/A/)(G/F/) (A/4G/4F/4E/4) DB,A,|(A,/D/)(B,/D/)(C/E/) {C}D2:|]

